frontend/public/svg/STHighlightSPC.svg

<svg width="100%" height="fit" viewBox="0 0 1086 46" fill="none" xmlns="http://www.w3.org/2000/svg">
<g clip-path="url(#clip0_1665_5621)">
<rect width="1086" height="46" transform="matrix(-1 0 0 -1 1086 46)" fill="#225654"/>
<path d="M1086 54.625L1063.38 53.9905C1040.75 53.3283 995.5 52.0593 950.25 51.6455C905 51.2316 859.75 51.673 814.5 52.4179C769.25 53.1628 724 54.156 678.75 54.1284C633.5 54.0732 588.25 52.9697 543 50.9557C497.75 48.9142 452.5 45.9898 407.25 44.1966C362 42.4033 316.75 41.7412 271.5 42.293C226.25 42.8448 181 44.6104 135.75 44.1966C90.5 43.7828 55.125 36.4878 32.5 35.2187L0 31.625V0L22.625 0C45.25 0 90.5 0 135.75 0C181 0 226.25 0 271.5 0C316.75 0 362 0 407.25 0C452.5 0 497.75 0 543 0C588.25 0 633.5 0 678.75 0C724 0 769.25 0 814.5 0C859.75 0 905 0 950.25 0C995.5 0 1040.75 0 1063.38 0H1086V54.625Z" fill="#225654"/>
<path d="M1086 22.82L1063.38 22.7682C1040.75 22.7422 995.5 22.6385 950.25 21.7828C905 20.927 859.75 19.2674 814.5 18.2301C769.25 17.1928 724 16.7779 678.75 19.3192C633.5 21.8606 588.25 27.41 543 28.525C497.75 29.6401 452.5 26.3727 407.25 24.5575C362 22.7422 316.75 22.3792 271.5 23.7795C226.25 25.1539 181 28.2657 135.75 29.692C90.5 31.1182 45.25 30.8589 22.625 30.7292L0 30.5996V4.00543e-05H22.625C45.25 4.00543e-05 90.5 4.00543e-05 135.75 4.00543e-05C181 4.00543e-05 226.25 4.00543e-05 271.5 4.00543e-05C316.75 4.00543e-05 362 4.00543e-05 407.25 4.00543e-05C452.5 4.00543e-05 497.75 4.00543e-05 543 4.00543e-05C588.25 4.00543e-05 633.5 4.00543e-05 678.75 4.00543e-05C724 4.00543e-05 769.25 4.00543e-05 814.5 4.00543e-05C859.75 4.00543e-05 905 4.00543e-05 950.25 4.00543e-05C995.5 4.00543e-05 1040.75 4.00543e-05 1063.38 4.00543e-05L1086 4.00543e-05V22.82Z" fill="#579783"/>
</g>
<defs>
<clipPath id="clip0_1665_5621">
<rect width="1086" height="46" fill="white" transform="matrix(-1 0 0 -1 1086 46)"/>
</clipPath>
</defs>
</svg>

<svg xmlns="http://www.w3.org/2000/svg" height="fit" fill="none" viewBox="0 0 1086 46"><g clip-path="url(#a)"><path fill="#225654" d="M1086 46H0V0h1086z"/><path fill="#225654" d="m1086 54.625-22.62-.635c-22.63-.662-67.88-1.93-113.13-2.345-45.25-.413-90.5.028-135.75.773s-90.5 1.738-135.75 1.71c-45.25-.055-90.5-1.158-135.75-3.172-45.25-2.042-90.5-4.966-135.75-6.76s-90.5-2.455-135.75-1.903-90.5 2.317-135.75 1.904-80.625-7.71-103.25-8.978L0 31.625V0h1086z"/><path fill="#579783" d="m1086 22.82-22.62-.052c-22.63-.026-67.88-.13-113.13-.985-45.25-.856-90.5-2.516-135.75-3.553s-90.5-1.452-135.75 1.09c-45.25 2.54-90.5 8.09-135.75 9.205s-90.5-2.152-135.75-3.967c-45.25-1.816-90.5-2.179-135.75-.779-45.25 1.375-90.5 4.487-135.75 5.913s-90.5 1.167-113.125 1.037L0 30.6V0h1086z"/></g><defs><clipPath id="a"><path fill="#fff" d="M1086 46H0V0h1086z"/></clipPath></defs></svg>
